X:421
T: Hualezhetou huanatou
N: C1456
O: China, Hubei, Xianfeng
S: I, 452]
R: Wuge, Huadeng, Dengdiao]
M: 2/4
L: 1/16
K: F
c2A2c2A2 | c2f2d2c2 | c2A6 | c2f2d2c2 | c2A6
c2AcF2G2 | F2A2G2F2 | D2D4F2 | G6c2 | A6G2 | F2A2G2F2 | D2D6

